public/mascots/dropout/bear-yeezus-512x512.svg

<svg xmlns="http://www.w3.org/2000/svg" width="512" height="512" viewBox="0 0 512 512"><defs><linearGradient id="a" x1="0%" x2="100%" y1="0%" y2="100%"><stop offset="0%" style="stop-color:sienna"/><stop offset="50%" style="stop-color:#8b4513"/><stop offset="100%" style="stop-color:#654321"/></linearGradient></defs><ellipse cx="256" cy="480" opacity=".1" rx="100" ry="20"/><circle cx="160" cy="128" r="64" fill="url(#a)"/><circle cx="352" cy="128" r="64" fill="url(#a)"/><ellipse cx="256" cy="192" fill="url(#a)" rx="128" ry="112"/><path fill="#fff" d="M128 160q128-64 256 0 16 64 0 96-128 32-256 0-16-32 0-96"/><path fill="none" stroke="#ddd" stroke-width="4" d="M128 160q128 64 256 0"/><ellipse cx="256" cy="224" fill="#deb887" rx="64" ry="48"/><ellipse cx="256" cy="208" fill="#333" rx="24" ry="20"/><path stroke="#333" stroke-width="6" d="m176 184 48-8M288 176l48 8"/><path fill="#fff" d="M160 288q0-48 96-64 96 16 96 64 0 128-96 160-96-32-96-160"/><path fill="none" stroke="#ccc" stroke-width="4" d="M192 320q64 32 128 0M176 384q80 16 160 0"/><path fill="#fff" d="M160 320q-32 32-16 64t48 0M352 320q32 32 16 64t-48 0"/><circle cx="160" cy="400" r="20" fill="#8b4513"/><circle cx="352" cy="400" r="20" fill="#8b4513"/></svg>

<svg xmlns="http://www.w3.org/2000/svg" viewBox="0 0 512 512" width="512" height="512">
  <defs>
    <linearGradient id="yeeBearBrown512" x1="0%" y1="0%" x2="100%" y2="100%">
      <stop offset="0%" style="stop-color:#A0522D"/>
      <stop offset="50%" style="stop-color:#8B4513"/>
      <stop offset="100%" style="stop-color:#654321"/>
    </linearGradient>
  </defs>
  <ellipse cx="256" cy="480" rx="100" ry="20" fill="#000" opacity="0.1"/>
  <circle cx="160" cy="128" r="64" fill="url(#yeeBearBrown512)"/>
  <circle cx="352" cy="128" r="64" fill="url(#yeeBearBrown512)"/>
  <ellipse cx="256" cy="192" rx="128" ry="112" fill="url(#yeeBearBrown512)"/>
  <path d="M128 160 Q256 96 384 160 Q400 224 384 256 Q256 288 128 256 Q112 224 128 160Z" fill="#FFF"/>
  <path d="M128 160 Q256 224 384 160" fill="none" stroke="#DDD" stroke-width="4"/>
  <ellipse cx="256" cy="224" rx="64" ry="48" fill="#DEB887"/>
  <ellipse cx="256" cy="208" rx="24" ry="20" fill="#333"/>
  <path d="M176 184 L224 176" stroke="#333" stroke-width="6"/>
  <path d="M288 176 L336 184" stroke="#333" stroke-width="6"/>
  <path d="M160 288 Q160 240 256 224 Q352 240 352 288 Q352 416 256 448 Q160 416 160 288Z" fill="#FFF"/>
  <path d="M192 320 Q256 352 320 320" fill="none" stroke="#CCC" stroke-width="4"/>
  <path d="M176 384 Q256 400 336 384" fill="none" stroke="#CCC" stroke-width="4"/>
  <path d="M160 320 Q128 352 144 384 Q160 416 192 384" fill="#FFF"/>
  <path d="M352 320 Q384 352 368 384 Q352 416 320 384" fill="#FFF"/>
  <circle cx="160" cy="400" r="20" fill="#8B4513"/>
  <circle cx="352" cy="400" r="20" fill="#8B4513"/>
</svg>
